X:855
T:Soldier's Joy
R:country Dance
S:Kuntz - Ragged but Right
N:From the playing of Fiddlin' John Carson
M:C|
L:1/8
K:D
(3dcB|A2 FF D2 FF|A2 BA d2 dB|ABAG FGFD|E2 E4 (#G|
A2) FF DEFD|A2 BA d3 (e|f2) ff efec|d2 d4 (3dcB|A2 FF D2 FF|
ABAF dBAF|ABAG FGFD|E2 E4 (^G|A2) FE DEFD|A2 BA d3e|
f2 ff efdc|d2 d4||
|:A2|d2 f2 abaf|e2 ef g2 ge|d2 df abaf|edcB A3A|
d2f2 abaf|edef g2 ge|fafd egec|d2 d4:|

